resources/images/custom-gcode_filament.svg

<svg width="16" height="16" viewBox="0 0 16 16" fill="none" xmlns="http://www.w3.org/2000/svg">
<path d="M5.5 14.531C4.395 14.531 3.5 10.845 3.5 7.53101C3.5 4.21701 4.395 0.531006 5.5 0.531006" stroke="#FF7C3F" stroke-linecap="round" stroke-linejoin="round"/>
<path d="M9.5 14.531C8.395 14.531 7.5 10.845 7.5 7.53101C7.5 4.21701 8.395 0.531006 9.5 0.531006" stroke="#FF7C3F" stroke-linecap="round" stroke-linejoin="round"/>
<path d="M7.5 14.531C6.395 14.531 5.5 10.845 5.5 7.53101C5.5 4.21701 6.395 0.531006 7.5 0.531006" stroke="#FF7C3F" stroke-linecap="round" stroke-linejoin="round"/>
<path d="M3.5 13.728C3.206 14.239 2.864 14.528 2.5 14.528C1.4 14.528 0.5 10.842 0.5 7.52795C0.5 4.21395 1.4 0.527954 2.5 0.527954C2.865 0.527954 3.207 0.820954 3.5 1.33295" stroke="#949494" stroke-linecap="round" stroke-linejoin="round"/>
<path d="M12.5 14.531C13.6046 14.531 14.5 11.397 14.5 7.53101C14.5 3.66501 13.6046 0.531006 12.5 0.531006C11.3954 0.531006 10.5 3.66501 10.5 7.53101C10.5 11.397 11.3954 14.531 12.5 14.531Z" stroke="#949494" stroke-linecap="round" stroke-linejoin="round"/>
</svg>

<svg xmlns="http://www.w3.org/2000/svg" width="16" height="16" viewBox="0 0 16 16"><path d="M5.5,14.531c-1.105,0-2-3.686-2-7s.895-7,2-7" style="fill:none;stroke:#009688;stroke-linecap:round;stroke-linejoin:round"/><path d="M9.5,14.531c-1.105,0-2-3.686-2-7s.895-7,2-7" style="fill:none;stroke:#009688;stroke-linecap:round;stroke-linejoin:round"/><path d="M7.5,14.531c-1.105,0-2-3.686-2-7s.895-7,2-7" style="fill:none;stroke:#009688;stroke-linecap:round;stroke-linejoin:round"/><path d="M3.5,13.728c-.294.511-.636.8-1,.8-1.1,0-2-3.686-2-7s.9-7,2-7c.365,0,.707.293,1,.805" style="fill:none;stroke:#949494;stroke-linecap:round;stroke-linejoin:round"/><ellipse cx="12.5" cy="7.531" rx="2" ry="7" style="fill:none;stroke:#949494;stroke-linecap:round;stroke-linejoin:round"/></svg>
